icon-svg/lightstrip-off.svg

<svg xmlns="http://www.w3.org/2000/svg" fill="#44739e" viewBox="0 0 24 24"><path d="M21 17.25c0-.41-.34-.75-.75-.75h-1.22L21 18.47zM17.25 7.5c3 0 3.75 2.25 3.75 3V6.75C21 4.68 19.32 3 17.25 3H5.5l4.51 4.5zm-.75-3c.41 0 .75.34.75.75s-.34.75-.75.75-.75-.34-.75-.75.34-.75.75-.75m-3.75 0c.41 0 .75.34.75.75s-.34.75-.75.75-.75-.34-.75-.75.34-.75.75-.75M9 6c-.41 0-.75-.34-.75-.75s.34-.75.75-.75.75.34.75.75S9.41 6 9 6m7.23 7.7 2.88-.62c.81-.17 1.32-.97 1.15-1.78-.42-1.94-2.33-3.17-4.26-2.75l-4.06.87 1.57 1.56c.05-.02.1-.06.16-.07.41-.09.8.17.89.57.04.17 0 .33-.07.48zm1.09-3.58c.41-.09.8.17.89.57s-.17.8-.57.89c-.41.09-.8-.17-.89-.57s.17-.8.57-.89m4.66 10.82L2.86 1.87 1.45 3.28 3 4.83v1.92c0 .41.34.75.75.75h1.93l2.7 2.69-3.49.75c-.81.18-1.32.97-1.15 1.78.42 1.94 2.33 3.18 4.26 2.76l4.66-1.01 2.03 2.03H6.75c-3 0-3.75-2.25-3.75-3v3.75C3 19.32 4.68 21 6.75 21h12.46l1.36 1.36zM6.65 13.97c-.41.09-.8-.17-.89-.57-.09-.41.17-.8.57-.89.41-.09.8.17.89.58.09.39-.17.79-.57.88m.85 5.53c-.41 0-.75-.34-.75-.75s.34-.75.75-.75.75.34.75.75-.34.75-.75.75m3.75 0c-.41 0-.75-.34-.75-.75s.34-.75.75-.75.75.34.75.75-.34.75-.75.75m3.75 0c-.41 0-.75-.34-.75-.75s.34-.75.75-.75.75.34.75.75-.34.75-.75.75m-4.69-6.32c-.4.08-.8-.18-.89-.58-.08-.38.14-.74.5-.86l.93.93c-.07.24-.27.45-.54.51"/></svg>

<svg viewBox="0 0 24 24" height="24px" width="24px" fill="#44739e" xmlns="http://www.w3.org/2000/svg"><title>hue:lightstrip-off</title><path d="M21,17.25c0-0.41-0.34-0.75-0.75-0.75h-1.22L21,18.47V17.25z M17.25,7.5c3,0,3.75,2.25,3.75,3V6.75C21,4.68,19.32,3,17.25,3H5.5l4.51,4.5H17.25z M16.5,4.5 c0.41,0,0.75,0.34,0.75,0.75S16.91,6,16.5,6s-0.75-0.34-0.75-0.75S16.09,4.5,16.5,4.5z M12.75,4.5c0.41,0,0.75,0.34,0.75,0.75 S13.16,6,12.75,6S12,5.66,12,5.25S12.34,4.5,12.75,4.5z M9,6C8.59,6,8.25,5.66,8.25,5.25S8.59,4.5,9,4.5s0.75,0.34,0.75,0.75 S9.41,6,9,6z M16.23,13.7l2.88-0.62c0.81-0.17,1.32-0.97,1.15-1.78c-0.42-1.94-2.33-3.17-4.26-2.75l-4.06,0.87l1.57,1.56 c0.05-0.02,0.1-0.06,0.16-0.07c0.41-0.09,0.8,0.17,0.89,0.57c0.04,0.17,0,0.33-0.07,0.48L16.23,13.7z M17.32,10.12 c0.41-0.09,0.8,0.17,0.89,0.57c0.09,0.4-0.17,0.8-0.57,0.89c-0.41,0.09-0.8-0.17-0.89-0.57C16.66,10.61,16.92,10.21,17.32,10.12z  M21.98,20.94L2.86,1.87L1.45,3.28L3,4.83v1.92C3,7.16,3.34,7.5,3.75,7.5h1.93l2.7,2.69l-3.49,0.75 c-0.81,0.18-1.32,0.97-1.15,1.78C4.16,14.66,6.07,15.9,8,15.48l4.66-1.01l2.03,2.03H6.75c-3,0-3.75-2.25-3.75-3v3.75 C3,19.32,4.68,21,6.75,21h12.46l1.36,1.36L21.98,20.94z M6.65,13.97c-0.41,0.09-0.8-0.17-0.89-0.57c-0.09-0.41,0.17-0.8,0.57-0.89 c0.41-0.09,0.8,0.17,0.89,0.58C7.31,13.48,7.05,13.88,6.65,13.97z M7.5,19.5c-0.41,0-0.75-0.34-0.75-0.75S7.09,18,7.5,18 s0.75,0.34,0.75,0.75S7.91,19.5,7.5,19.5z M11.25,19.5c-0.41,0-0.75-0.34-0.75-0.75S10.84,18,11.25,18S12,18.34,12,18.75 S11.66,19.5,11.25,19.5z M15,19.5c-0.41,0-0.75-0.34-0.75-0.75S14.59,18,15,18s0.75,0.34,0.75,0.75S15.41,19.5,15,19.5z M10.31,13.18C9.91,13.26,9.51,13,9.42,12.6c-0.08-0.38,0.14-0.74,0.5-0.86l0.93,0.93C10.78,12.91,10.58,13.12,10.31,13.18z"/></svg>
